X: 6849
T: Charlie Mulvihill's
R: reel
M: 4/4
K: Dmajor
AF F2 G2 FG|AF F2 EGFE|D2 FA dfed|dBAF E2 dB|
AF F2 G2 FG|AF F2 EGFE|D2 FA dfed|dBAF D4:|
f2 fa g2 fg|afdf edBd|f2 fe dfed|dBAF E2 fg|
af f2 bf f2|af f2 efde|f2 fe dfed|dBAF D4:|

